X: 21033
T: LADY M'KENZIE OF COUL'S REEL
R: reel
B: K\"ohler's Violin Repository, v.2, 1885 p.103 #3
F: http://www.archive.org/details/klersviolinrepos02rugg
Z: 2012 John Chambers <jc:trillian.mit.edu>
M: C|
L: 1/8
K: D
uf |\
d2(AF) DFAF | d2(AF) Eeef | (dB)AF (DF)AF | (GB)AG (FD)D :|
uA |\
(FD)AF (BG)AF | (BG)AF (GE)EA | (FD)AF (BG)AF | (B,E)GE (FD)Dg |
(fd)af (bg)af | (bg)af (ge)eg | fdAF dAFD | Bege fd"_Fine."d "^D.C."|]

%%sep 2 1 500

